flags/cx.svg

<svg width="512" height="512" viewBox="0 0 512 512" fill="none" xmlns="http://www.w3.org/2000/svg">
<path d="M512 512L-2.23802e-05 512L0 0.00028127L512 0.015625L512 512Z" fill="var(--flag-palette-blue, #0052b4)"/>
<path d="M-2.23802e-05 0L512 -2.23802e-05L512 512L-2.23802e-05 0Z" fill="var(--flag-palette-green, #6da544)"/>
<path d="M95.3251 367.304L102.35 381.993L118.213 378.326L111.109 392.977L123.867 403.094L107.983 406.673L108.027 422.956L95.3251 412.769L82.6232 422.956L82.6672 406.673L66.7832 403.094L79.5412 392.977L72.4362 378.326L88.3002 381.993L95.3251 367.304Z" fill="var(--flag-palette-white, #eeeeee)"/>
<path d="M49.372 244.87L56.397 259.559L72.26 255.891L65.157 270.543L77.9129 280.66L62.03 284.239L62.074 300.522L49.372 290.336L36.671 300.522L36.714 284.239L20.8311 280.66L33.588 270.543L26.484 255.891L42.347 259.559L49.372 244.87Z" fill="var(--flag-palette-white, #eeeeee)"/>
<path d="M95.3251 144.696L102.35 159.385L118.213 155.717L111.11 170.369L123.867 180.486L107.983 184.065L108.027 200.348L95.3251 190.162L82.6232 200.348L82.6672 184.065L66.7842 180.486L79.5402 170.369L72.4362 155.717L88.3001 159.385L95.3251 144.696Z" fill="var(--flag-palette-white, #eeeeee)"/>
<path d="M152.408 222.608L159.433 237.297L175.297 233.629L168.192 248.282L180.949 258.398L165.066 261.978L165.109 278.26L152.408 268.074L139.706 278.26L139.75 261.978L123.867 258.398L136.623 248.282L129.52 233.629L145.383 237.297L152.408 222.608Z" fill="var(--flag-palette-white, #eeeeee)"/>
<path d="M111.591 289.392L117.117 306.398H134.996L120.531 316.908L126.057 333.913L111.591 323.404L97.1246 333.913L102.651 316.908L88.1846 306.398H106.065L111.591 289.392Z" fill="var(--flag-palette-white, #eeeeee)"/>
<path d="M256 322.782C292.883 322.782 322.783 292.882 322.783 255.999C322.783 219.116 292.883 189.216 256 189.216C219.117 189.216 189.217 219.116 189.217 255.999C189.217 292.882 219.117 322.782 256 322.782Z" fill="var(--flag-palette-yellow, #ffda44)"/>
<path d="M256 300.521H278.261C278.261 300.521 287.907 283.456 278.261 267.13L300.522 244.869L289.392 222.608H278.262C278.262 222.608 272.697 239.304 250.436 239.304C228.175 239.304 222.61 222.608 222.61 222.608H211.48L222.61 244.869L211.48 267.13L222.61 278.26C222.61 278.26 233.74 255.999 256.001 267.13C256 267.13 265.461 281.043 256 300.521Z" fill="var(--flag-palette-green, #6da544)"/>
<path d="M422.152 140.223C422.677 137.488 422.956 134.667 422.956 131.779C422.956 111.979 410.028 95.2079 392.156 89.4219C397.617 100.522 400.695 113.006 400.695 126.214C400.695 130.668 400.337 135.038 399.664 139.303C396.974 134.97 393.519 131.011 389.298 127.652C373.397 115 351.668 114.665 335.603 125.32C348.006 128.028 359.998 133.533 370.605 141.972C378.909 148.58 385.619 157.518 390.757 166.146L322.782 187.431C389.565 198.561 445.217 154.04 445.217 154.04C439.05 141.708 429.474 139.628 422.152 140.223Z" fill="var(--flag-palette-yellow, #ffda44)"/>
</svg>

<svg xmlns="http://www.w3.org/2000/svg" width="512" height="512" fill="none"><path fill="var(--flag-palette-blue, #0052b4)" d="M512 512H0V0h512z"/><path fill="var(--flag-palette-green, #6da544)" d="M0 0h512v512z"/><path fill="#EEE" d="m95.3 367.3 7 14.7 16-3.7L111 393l12.8 10-16 3.7.1 16.3-12.7-10.2L82.6 423v-16.3L66.9 403l12.6-10-7-14.7 15.8 3.7zM49.4 244.9l7 14.7 15.9-3.7-7.1 14.6 12.7 10.2-15.9 3.5v16.3l-12.6-10.2-12.7 10.2v-16.3l-15.9-3.5 12.8-10.2-7.1-14.6 15.8 3.7zm45.9-100.2 7 14.7 16-3.7-7.2 14.7 12.8 10-16 3.7.1 16.2-12.7-10.1-12.7 10.1v-16.2l-15.8-3.6 12.7-10.1-7-14.7 15.8 3.7zm57.1 77.9 7 14.7 15.9-3.7-7.1 14.7 12.7 10.1-15.8 3.6v16.3L152.4 268l-12.7 10.2V262l-15.8-3.6 12.7-10.1-7-14.7 15.8 3.7zm-40.8 66.8 5.5 17H135l-14.5 10.5 5.6 17-14.5-10.5L97 333.9l5.6-17-14.5-10.5H106z"/><path fill="var(--flag-palette-yellow, #ffda44)" d="M256 322.8a66.8 66.8 0 1 0 0-133.6 66.8 66.8 0 0 0 0 133.6"/><path fill="var(--flag-palette-green, #6da544)" d="M256 300.5h22.3s9.6-17 0-33.4l22.2-22.2-11.1-22.3h-11.1s-5.6 16.7-27.9 16.7-27.8-16.7-27.8-16.7h-11.1l11.1 22.3-11.1 22.2 11.1 11.2S233.7 256 256 267c0 0 9.5 14 0 33.4"/><path fill="var(--flag-palette-yellow, #ffda44)" d="M422.2 140.2a45 45 0 0 0-30-50.8 83 83 0 0 1 7.5 49.9 45.6 45.6 0 0 0-64.1-14 85 85 0 0 1 35 16.7c8.3 6.6 15 15.5 20.2 24.1l-68 21.3c66.8 11.2 122.4-33.4 122.4-33.4-6.1-12.3-15.7-14.4-23-13.8"/></svg>
